X:1
T:Title
%%score 1 2
L:1/8
Q:1/4=90
M:2/4
K:D
V:1 treble nm="Synth Voice, Staff"
V:2 bass nm="Harp, Staff-1"
V:1
 z D CD | ^A2 AA | A2 A2 | z D CD | A2 A^A | G2 G2 | z D CD | ^A2 AA | A2 A2 | z D CD | A2 A^A | %11
 G2 G2 | z G ^A=c | d2 d^d | =c2 c2 | z D FA | =c2 cd | ^A2 A2 | z D CD | ^A2 AA | A2 A2 | %21
[Q:1/4=84] z D CD |[Q:1/4=82] A2 A^A |[Q:1/4=80] G2 G2 |] %24
V:2
 [F,A,=CD]4 | [G,^A,D]4 | [G,A,CE]4 | [G,A,CE]4 | [F,A,=CD]4 | [G,^A,D]4 | [F,A,=CD]4 | [G,^A,D]4 | %8
w: By~anonima||||||||
 [G,A,CE]4 | [G,A,CE]4 | [F,A,=CD]4 | [G,^A,D]4 | [A,=C^D=F]4 | [^A,D=F]4 | [G,^A,=CE]4 | %15
w: |||||||
 [G,^A,=CE]4 | [F,A,=CD]4 | [G,^A,D]4 | [F,A,=CD]4 | [G,^A,D=F]4 | [G,A,CE]4 | [F,A,D]4 | %22
w: |||||||
 [F,A,=CD]4 | [G,^A,D]4 |] %24
w: ||

